assets/svg/header/price.svg

<svg width="25" height="24" viewBox="0 0 25 24" fill="none" xmlns="http://www.w3.org/2000/svg">
<g>
<path fill-rule="evenodd" clip-rule="evenodd" d="M8.06005 0.4545C8.11792 0.3195 8.21416 0.204464 8.33682 0.123668C8.45948 0.0428708 8.60317 -0.000130338 8.75005 2.96762e-07H16.2501C16.5501 2.96762e-07 16.8201 0.18 16.9401 0.4545L21.4401 10.9545C21.4839 11.0572 21.5043 11.1684 21.4997 11.28C21.4951 11.3916 21.4657 11.5008 21.4135 11.5996C21.3613 11.6983 21.2877 11.7842 21.1981 11.8509C21.1085 11.9176 21.0051 11.9634 20.8956 11.985H20.8926C20.6676 12.03 20.4426 12.069 20.2176 12.1065C17.9132 12.4844 15.5848 12.6975 13.2501 12.744V20.25C13.2501 20.4489 13.171 20.6397 13.0304 20.7803C12.8897 20.921 12.699 21 12.5001 21C12.3011 21 12.1104 20.921 11.9697 20.7803C11.8291 20.6397 11.7501 20.4489 11.7501 20.25V12.7425C9.41535 12.6959 7.08695 12.4828 4.78255 12.105C4.55755 12.0675 4.33255 12.03 4.10755 11.985H4.10305C3.99341 11.9632 3.89001 11.9173 3.80043 11.8504C3.71085 11.7835 3.63734 11.6975 3.58529 11.5986C3.53324 11.4996 3.50396 11.3903 3.4996 11.2786C3.49523 11.1669 3.51588 11.0557 3.56005 10.953L8.06005 0.453V0.4545Z" fill="#151515"/>
<path d="M10.2395 18.8609C10.272 19.057 10.2254 19.2581 10.1098 19.4198C9.99416 19.5815 9.81909 19.6907 9.623 19.7234C8.555 19.9004 7.703 20.1659 7.1405 20.4629C6.93387 20.5623 6.74607 20.6968 6.5855 20.8604C6.55393 20.8937 6.52763 20.9317 6.5075 20.9729L6.506 20.9789L6.5 20.9939V20.9999L6.503 21.0119C6.5089 21.0294 6.51697 21.046 6.527 21.0614C6.58627 21.1482 6.65981 21.2243 6.7445 21.2864C6.992 21.4814 7.397 21.6914 7.964 21.8789C9.0905 22.2539 10.694 22.4999 12.5 22.4999C14.306 22.4999 15.9095 22.2554 17.036 21.8789C17.603 21.6899 18.008 21.4814 18.2555 21.2864C18.3407 21.2244 18.4148 21.1483 18.4745 21.0614C18.484 21.0459 18.4916 21.0293 18.497 21.0119L18.5 20.9999V20.9939C18.4798 20.9442 18.4508 20.8985 18.4145 20.8589C18.2538 20.6958 18.066 20.5618 17.8595 20.4629C17.2955 20.1659 16.445 19.9004 15.377 19.7234C15.2775 19.71 15.1817 19.6766 15.0954 19.6255C15.009 19.5743 14.9338 19.5063 14.8742 19.4255C14.8146 19.3447 14.7718 19.2528 14.7484 19.1552C14.725 19.0575 14.7214 18.9562 14.7379 18.8572C14.7543 18.7581 14.7905 18.6634 14.8443 18.5786C14.898 18.4938 14.9683 18.4207 15.0508 18.3636C15.1334 18.3064 15.2265 18.2664 15.3248 18.246C15.4231 18.2255 15.5245 18.225 15.623 18.2444C16.778 18.4349 17.801 18.7364 18.5585 19.1354C19.25 19.4999 20 20.0999 20 20.9999C20 21.6389 19.61 22.1279 19.184 22.4654C18.749 22.8074 18.164 23.0849 17.51 23.3024C16.193 23.7419 14.4215 23.9999 12.5 23.9999C10.5785 23.9999 8.807 23.7419 7.49 23.3024C6.836 23.0849 6.251 22.8074 5.816 22.4654C5.39 22.1279 5 21.6389 5 20.9999C5 20.1014 5.75 19.4999 6.4415 19.1354C7.199 18.7364 8.222 18.4349 9.377 18.2444C9.57312 18.2119 9.77412 18.2586 9.93585 18.3742C10.0976 18.4898 10.2068 18.6648 10.2395 18.8609Z" fill="#151515"/>
</g>

</svg>

<svg xmlns="http://www.w3.org/2000/svg" width="25" height="24" fill="none"><g fill="#151515"><path fill-rule="evenodd" d="M8.06.455A.75.75 0 0 1 8.75 0h7.5c.3 0 .57.18.69.455l4.5 10.5a.75.75 0 0 1-.544 1.03h-.003q-.337.066-.675.122a49 49 0 0 1-6.968.637v7.506a.75.75 0 0 1-1.5 0v-7.507a49 49 0 0 1-6.967-.638q-.337-.054-.675-.12h-.005a.75.75 0 0 1-.543-1.032l4.5-10.5z" clip-rule="evenodd"/><path d="M10.24 18.86a.75.75 0 0 1-.617.863c-1.068.177-1.92.443-2.482.74a2 2 0 0 0-.556.397.5.5 0 0 0-.077.113l-.002.006-.006.015V21l.003.012a.2.2 0 0 0 .024.05q.09.13.218.224c.247.195.652.405 1.219.593 1.127.375 2.73.62 4.536.62s3.41-.244 4.536-.62c.567-.19.972-.398 1.22-.593a1 1 0 0 0 .218-.225.2.2 0 0 0 .023-.05L18.5 21v-.006a.5.5 0 0 0-.085-.135 2 2 0 0 0-.555-.396c-.564-.297-1.415-.563-2.483-.74a.75.75 0 1 1 .246-1.479c1.155.19 2.178.492 2.935.891C19.25 19.5 20 20.1 20 21c0 .639-.39 1.128-.816 1.465-.435.342-1.02.62-1.674.837-1.317.44-3.089.698-5.01.698s-3.693-.258-5.01-.698c-.654-.217-1.239-.495-1.674-.837C5.39 22.128 5 21.64 5 21c0-.899.75-1.5 1.441-1.865.758-.399 1.781-.7 2.936-.89a.75.75 0 0 1 .862.616"/></g></svg>
